img/feedback/logo.svg

<svg width="113" height="35" viewBox="0 0 113 35" fill="none" xmlns="http://www.w3.org/2000/svg">
<g clip-path="url(#clip0_14_1541)">
<path d="M31.5003 24.8491C31.5003 27.6559 30.539 30.007 28.6164 31.9025C26.6959 33.7974 24.307 34.7452 21.4498 34.7458H13.0282V21.3155H18.4641V29.8529H21.4498C22.8888 29.8529 24.0612 29.3953 24.9672 28.48C25.8745 27.5679 26.3275 26.3576 26.3262 24.8491C26.3262 23.3404 25.8732 22.1288 24.9672 21.2142C24.0619 20.3003 22.8894 19.8433 21.4498 19.8433H10.0424C8.44527 19.8659 6.86591 19.5203 5.43784 18.8356C5.34589 18.7917 5.25395 18.7438 5.16404 18.6961C4.31804 18.2426 3.54691 17.6717 2.87577 17.002C1.05359 15.2196 0.0230427 12.8317 0 10.3385L0 9.5717C0.0799666 6.92733 1.03858 4.70045 2.87585 2.89106C4.79637 0.996254 7.18523 0.0485187 10.0424 0.0478516H18.4641V13.48H13.0282V4.94079H10.0424C8.60351 4.94079 7.43107 5.39777 6.52511 6.31172C5.61779 7.22573 5.16412 8.4367 5.16412 9.94462C5.16412 11.4551 5.61779 12.6667 6.52511 13.5794C7.4304 14.4934 8.60284 14.951 10.0424 14.9523H21.4498C24.3077 14.9523 26.6965 15.8987 28.6164 17.7917C30.539 19.6865 31.5003 22.039 31.5003 24.8491Z" fill="white"/>
<path d="M51.0411 0H46.1825L41.0342 14.9261H45.3579L46.0265 12.7724H51.2193L51.888 14.9261H56.1895L51.0411 0ZM47.0517 9.4888L48.6118 4.41394L50.1942 9.4888H47.0517Z" fill="#E97522"/>
<path d="M63.677 1.24557e-08H57.3252V9.90914H61.426V3.68889H63.6771C64.1704 3.67211 64.6619 3.75561 65.1191 3.93388C65.5762 4.11216 65.9887 4.38115 66.3292 4.72312C67.0124 5.41269 67.3541 6.32601 67.3544 7.46306C67.3544 8.60042 67.0127 9.51373 66.3292 10.203C65.9887 10.545 65.5763 10.814 65.1191 10.9923C64.6619 11.1706 64.1704 11.2541 63.677 11.2372H57.3252V14.9261H63.677C65.8311 14.9261 67.6326 14.2118 69.0815 12.7831C70.5304 11.3545 71.2548 9.58111 71.2545 7.46306C71.2545 5.34512 70.5302 3.57176 69.0815 2.14299C67.6329 0.714222 65.8314 -0.000108915 63.677 1.24557e-08Z" fill="#E97522"/>
<path d="M79.4564 1.24557e-08H73.1045V3.68889H79.4564C79.9497 3.67211 80.4412 3.75561 80.8984 3.93388C81.3555 4.11215 81.768 4.38115 82.1085 4.72312C82.7917 5.41275 83.1334 6.32606 83.1337 7.46306C83.1337 8.60042 82.7919 9.51373 82.1085 10.203C81.768 10.545 81.3556 10.814 80.8984 10.9923C80.4412 11.1706 79.9497 11.254 79.4564 11.2372H77.2053V5.01698H73.1045V14.9261H79.4563C81.6104 14.9261 83.4119 14.2118 84.8608 12.7831C86.3097 11.3545 87.0341 9.58111 87.0338 7.46306C87.0338 5.34512 86.3095 3.57176 84.8608 2.14299C83.4121 0.714222 81.6106 -0.000108915 79.4564 1.24557e-08Z" fill="#E97522"/>
<path d="M47.0962 19.7538C47.8263 19.7354 48.5531 19.8559 49.2341 20.1085C49.9152 20.3611 50.537 20.7406 51.0635 21.225C52.1331 22.2061 52.6679 23.4571 52.6681 24.9781C52.6681 26.4994 52.1332 27.7503 51.0635 28.7308C50.537 29.2153 49.9152 29.5949 49.2342 29.8475C48.5531 30.1001 47.8264 30.2206 47.0962 30.2021H45.0234V34.6801H41.0342V19.7538H47.0962ZM47.0962 26.5773C47.306 26.5815 47.5145 26.5439 47.7082 26.4668C47.902 26.3897 48.0769 26.2747 48.2217 26.1294C48.3745 25.9765 48.4938 25.7959 48.5723 25.5981C48.6509 25.4004 48.6871 25.1895 48.6788 24.9781C48.6878 24.7682 48.6519 24.5588 48.5733 24.3626C48.4946 24.1664 48.375 23.9877 48.2217 23.8374C48.0752 23.6948 47.8998 23.5824 47.7062 23.5072C47.5127 23.432 47.305 23.3955 47.0962 23.4H45.0234V26.5773H47.0962Z" fill="#B1B1B1"/>
<path d="M62.6077 19.7539H66.5746V34.6803H62.6077V28.9444H58.2168V34.6803H54.2275V19.7539H58.2168V25.2765H62.6077V19.7539Z" fill="#B1B1B1"/>
<path d="M82.4325 32.751C80.8759 34.1937 78.7938 35.0003 76.6266 35.0003C74.4595 35.0003 72.3773 34.1937 70.8208 32.751C70.0487 32.0344 69.4395 31.1731 69.031 30.221C68.6226 29.2689 68.4239 28.2464 68.4471 27.2175C68.4239 26.1885 68.6227 25.1661 69.0311 24.214C69.4395 23.2619 70.0488 22.4006 70.8208 21.684C72.3773 20.2413 74.4595 19.4346 76.6266 19.4346C78.7938 19.4346 80.8759 20.2413 82.4325 21.684C83.2044 22.4007 83.8136 23.262 84.222 24.214C84.6304 25.1661 84.8292 26.1886 84.806 27.2175C84.8293 28.2464 84.6305 29.2688 84.2221 30.2209C83.8137 31.173 83.2044 32.0343 82.4325 32.751ZM73.6177 30.1282C74.3258 30.8503 75.2748 31.3135 76.3015 31.438C77.3281 31.5625 78.368 31.3406 79.2419 30.8104C80.1159 30.2802 80.7692 29.475 81.0893 28.5334C81.4094 27.5919 81.3763 26.5731 80.9955 25.6524C80.6148 24.7318 79.9104 23.967 79.0037 23.4898C78.097 23.0127 77.0447 22.8531 76.0281 23.0385C75.0116 23.2239 74.0945 23.7427 73.4348 24.5055C72.7751 25.2683 72.4141 26.2274 72.4141 27.2175C72.3953 27.7557 72.4925 28.2918 72.6995 28.7926C72.9066 29.2933 73.2192 29.748 73.6177 30.1282Z" fill="#B1B1B1"/>
<path d="M96.5741 19.7539V23.4427H92.7182V34.6803H88.7289V23.4427H84.873V19.7539H96.5741Z" fill="#B1B1B1"/>
<path d="M110.627 32.751C109.07 34.1937 106.988 35.0003 104.821 35.0003C102.654 35.0003 100.572 34.1937 99.0151 32.751C98.2431 32.0344 97.6338 31.1731 97.2254 30.221C96.817 29.2689 96.6182 28.2464 96.6415 27.2175C96.6182 26.1886 96.817 25.1661 97.2254 24.214C97.6338 23.2619 98.2431 22.4006 99.0151 21.684C100.572 20.2413 102.654 19.4346 104.821 19.4346C106.988 19.4346 109.07 20.2413 110.627 21.684C111.399 22.4007 112.008 23.262 112.416 24.214C112.825 25.1661 113.024 26.1886 113 27.2175C113.024 28.2464 112.825 29.2688 112.416 30.2209C112.008 31.173 111.399 32.0343 110.627 32.751ZM101.812 30.1282C102.52 30.8503 103.469 31.3135 104.496 31.438C105.522 31.5625 106.562 31.3406 107.436 30.8104C108.31 30.2802 108.964 29.475 109.284 28.5334C109.604 27.5919 109.571 26.5731 109.19 25.6524C108.809 24.7318 108.105 23.967 107.198 23.4898C106.291 23.0127 105.239 22.8531 104.222 23.0385C103.206 23.2239 102.289 23.7427 101.629 24.5055C100.969 25.2683 100.608 26.2274 100.608 27.2175C100.59 27.7557 100.687 28.2918 100.894 28.7926C101.101 29.2933 101.413 29.748 101.812 30.1282Z" fill="#B1B1B1"/>
</g>
<defs>
<clipPath id="clip0_14_1541">
<rect width="113" height="35" fill="white"/>
</clipPath>
</defs>
</svg>

<svg width="113" height="35" fill="none" xmlns="http://www.w3.org/2000/svg"><g clip-path="url(#clip0_14_1541)"><path d="M31.5 24.85c0 2.806-.961 5.157-2.884 7.052-1.92 1.895-4.309 2.843-7.166 2.844h-8.422v-13.43h5.436v8.537h2.986c1.439 0 2.611-.458 3.517-1.373.908-.912 1.36-2.122 1.36-3.63 0-1.51-.454-2.721-1.36-3.636-.905-.914-2.078-1.37-3.517-1.37H10.042a10.322 10.322 0 01-4.604-1.008 9.778 9.778 0 01-2.562-1.834C1.054 15.22.023 12.832 0 10.338v-.766C.08 6.927 1.039 4.7 2.876 2.892 4.796.995 7.186.048 10.042.047h8.422V13.48h-5.436V4.94h-2.986c-1.438 0-2.61.458-3.517 1.372-.907.914-1.36 2.125-1.36 3.633 0 1.51.453 2.722 1.36 3.634.905.914 2.078 1.372 3.517 1.373H21.45c2.858 0 5.247.947 7.166 2.84 1.923 1.894 2.884 4.247 2.884 7.057z" fill="#fff"/><path d="M51.041 0h-4.858l-5.149 14.926h4.324l.669-2.154h5.192l.669 2.154h4.302L51.04 0zm-3.99 9.489l1.56-5.075 1.583 5.075h-3.142zM63.677 0h-6.352v9.91h4.101V3.688h2.251c.493-.017.985.067 1.442.245.457.178.87.447 1.21.79.683.689 1.025 1.602 1.025 2.74 0 1.136-.341 2.05-1.025 2.739a3.51 3.51 0 01-1.21.79 3.63 3.63 0 01-1.442.244h-6.352v3.69h6.352c2.154 0 3.956-.715 5.405-2.144 1.448-1.428 2.173-3.202 2.172-5.32 0-2.118-.724-3.891-2.172-5.32C67.632.714 65.832 0 63.677 0zm15.779 0h-6.352v3.689h6.352a3.63 3.63 0 011.442.245c.458.178.87.447 1.21.79.684.689 1.025 1.602 1.026 2.74 0 1.136-.342 2.05-1.025 2.739a3.52 3.52 0 01-1.21.79 3.632 3.632 0 01-1.443.244h-2.25v-6.22h-4.102v9.91h6.352c2.154 0 3.956-.715 5.405-2.144 1.449-1.428 2.173-3.202 2.173-5.32 0-2.118-.725-3.891-2.173-5.32C83.412.714 81.61 0 79.456 0z" fill="#E97522"/><path d="M47.096 19.754a5.736 5.736 0 012.138.354 5.552 5.552 0 011.83 1.117c1.07.981 1.604 2.232 1.604 3.753s-.535 2.772-1.605 3.753a5.551 5.551 0 01-1.829 1.116 5.735 5.735 0 01-2.138.355h-2.073v4.478h-3.989V19.754h6.062zm0 6.823c.21.004.419-.033.612-.11.194-.077.369-.192.514-.338a1.57 1.57 0 00.35-.53c.079-.199.115-.41.107-.62.009-.21-.027-.42-.106-.616a1.538 1.538 0 00-1.477-.963h-2.073v3.177h2.073zm15.512-6.823h3.967V34.68h-3.967v-5.736h-4.391v5.736h-3.99V19.754h3.99v5.522h4.39v-5.522zm19.825 12.997c-1.557 1.443-3.64 2.25-5.806 2.25-2.167 0-4.25-.807-5.806-2.25a7.477 7.477 0 01-1.79-2.53 7.202 7.202 0 01-.584-3.003 7.201 7.201 0 01.584-3.004 7.477 7.477 0 011.79-2.53c1.556-1.443 3.639-2.25 5.806-2.25 2.167 0 4.249.807 5.806 2.25a7.48 7.48 0 011.789 2.53c.408.952.607 1.975.584 3.004a7.2 7.2 0 01-.584 3.003 7.48 7.48 0 01-1.79 2.53zm-8.815-2.623a4.52 4.52 0 002.684 1.31 4.609 4.609 0 002.94-.628 4.286 4.286 0 001.847-2.277c.32-.941.287-1.96-.093-2.88a4.321 4.321 0 00-1.992-2.163 4.622 4.622 0 00-2.976-.451 4.49 4.49 0 00-2.593 1.466 4.144 4.144 0 00-1.02 2.713 3.775 3.775 0 00.284 1.575c.208.5.52.955.919 1.335zm22.956-10.374v3.689h-3.856V34.68h-3.99V23.443h-3.855v-3.69h11.701zm14.053 12.997c-1.557 1.443-3.639 2.25-5.806 2.25-2.167 0-4.249-.807-5.806-2.25a7.477 7.477 0 01-1.79-2.53 7.2 7.2 0 01-.584-3.003 7.2 7.2 0 01.584-3.004 7.477 7.477 0 011.79-2.53c1.557-1.443 3.639-2.25 5.806-2.25 2.167 0 4.249.807 5.806 2.25a7.472 7.472 0 011.789 2.53 7.18 7.18 0 01.584 3.004 7.18 7.18 0 01-.584 3.003 7.47 7.47 0 01-1.789 2.53zm-8.815-2.623a4.519 4.519 0 002.684 1.31 4.609 4.609 0 002.94-.628 4.287 4.287 0 001.848-2.277 4.08 4.08 0 00-.094-2.88 4.321 4.321 0 00-1.992-2.163 4.623 4.623 0 00-2.976-.451 4.492 4.492 0 00-2.593 1.466 4.142 4.142 0 00-1.021 2.713 3.788 3.788 0 00.286 1.575c.207.5.519.955.918 1.335z" fill="#B1B1B1"/></g><defs><clipPath id="clip0_14_1541"><path fill="#fff" d="M0 0h113v35H0z"/></clipPath></defs></svg>
